X:1
T:No Vacant Chair
T:No Vacant Chair
T:Edmund Simon Lorenz
T:Ina Duley Ogdon, 1907
T:Public Domain Courtesy of the Cyber Hymnal™
T:Public Domain Courtesy of the Cyber Hymnal™
C:Edmund Simon Lorenz
Z:Public Domain
Z:Courtesy of the Cyber Hymnal™
%%score ( 1 2 ) ( 3 4 )
L:1/8
Q:1/4=107
M:4/4
K:Bb
V:1 treble 
V:2 treble 
V:3 bass 
V:4 bass 
V:1
 [B,D][CE] | [DF]3 [EG] [DF]2 [FB]2 | [EB]2 [EA]2 [EG]2 [EF]2 | [Ec]3 [Ec] [DB]2 [Fc]2 | %4
w: 1.~Hear the|gra- cious in- vi-|ta- tion, From the|roy- al house of|
w: 2.~Let us|robe in snow- y|white- ness For that|great and hap- py|
w: 3.~Ma- ny|friends are there to|meet us In re-|deemed, im- mor- tal|
 [Fd]6 [Fd][Fc] | [GB]3 [^FA] [GB]2 [EG]2 | [EG]2 [DF]2 F2 [FG]2 | [FA]3 [FA] [=EG]2 [Ec]2 | %8
w: God, Un- to|all of ev- ery|na- tion, Signed and|sealed by Je- sus’|
w: day; Tune our|hearts to songs of|bright- ness, Bid our|trou- bles flee a-|
w: state; They are|press- ing forth to|greet us, As we’re|sweep- ing thro’ the|
 [Ec]6 [EF][EG] | [EB]2 [EA]2 [EG]2 [EF]2 | [DF]2 [DB]2 [DF]2 [DG]2 | [EB]2 [EA]2 [DB]2 [Fc]2 | %12
w: blood; Lo! the|wed- ding feast is|wait- ing, Let us|hast- en to pre-|
w: way; There shall|ne- ver- more be|sor- row, There shall|ne- ver- more be|
w: gate; Hear the|lov- ing Fa- ther|plead- ing, Lo! the|feast a- waits us|
 [Fd]6 [Fd][Fd] | [^Fd]2 [Fc]2 [Gc]2 [GB]2 | [EG]2 [Ge]2 [Fd]2 [Ec]2 | [DF]2 [Fd]2 [Ec]3 [DB] | %16
w: pare; Let us|waste no time de-|bat- ing, Let there|be no va- cant|
w: night; At the|fes- tal board to-|mor- row, Shall be|naught but pure de-|
w: there; Oh, His|bless- èd sum- mons|heed- ing, Let there|be no va- cant|
 [DB]6 ||"^Refrain" [DB][Ec] | [Fd]2 [Fd]2 [DF]2 [Fd]2 | [Fe]6 [EA][DB] | [Ec]2 [Ec]2 [EF]2 [Ec]2 | %21
w: chair.|||||
w: light.|Let there|be no va- cant|chair! Let us|one and all be|
w: chair.|||||
 [Fd]6 [DB][Ec] | [Fd]2 [FB]2 [^FA]2 [FB]2 | G2 [Ge]2 [Fd]2 [Ec]2 | [DF]2 [Fd]2 [Ec]3 [DB] | %25
w: ||||
w: there! Lo! the|wed- ding feast is|rea- dy, Let there|be no va- cant|
w: ||||
 [DB]6 |] %26
w: |
w: chair.|
w: |
V:2
 x2 | x8 | x8 | x8 | x8 | x8 | x4 F2 x2 | x8 | x8 | x8 | x8 | x8 | x8 | x8 | x8 | x8 | x6 || x2 | %18
 x8 | x8 | x8 | x8 | x8 | G2 x6 | x8 | x6 |] %26
V:3
 [B,,F,][B,,F,] | [B,,B,]3 [B,,B,] [B,,B,]2 [D,B,]2 | [C,F,]2 [C,F,]2 [C,G,]2 [C,A,]2 | %3
w: ~ ~|~ ~ ~ ~|~ ~ ~ ~|
 [F,A,]3 [F,A,] [F,B,]2 [F,A,]2 | [B,,B,]6 [B,,B,][B,,B,] | [E,B,]3 [E,C] [E,B,]2 [E,B,]2 | %6
w: ~ ~ ~ ~|~ ~ ~|~ ~ ~ ~|
 [B,,B,]2 [B,,B,]2 [B,,D]2 [B,,_D]2 | [C,C]3 [C,C] [C,B,]2 [C,B,]2 | [F,A,]6 [F,A,][F,B,] | %9
w: ~ ~ ~ ~|~ ~ ~ ~|~ ~ ~|
 [F,C]2 [F,C]2 [F,B,]2 [F,A,]2 | [B,,B,]2 [B,,F,]2 [B,,B,]2 [B,,B,]2 | %11
w: ~ ~ ~ ~|~ ~ ~ ~|
 [F,C]2 [F,C]2 [F,B,]2 [F,A,]2 | B,6 B,B, | [A,D]2 [A,D]2 [G,D]2 (DB,) | %14
w: ~ ~ ~ ~|~ ~ ~|~ ~ ~ ~ *|
 [E,B,]2 [C,C]2 [D,=B,]2 [E,C]2 | [F,B,]2 [F,B,]2 [F,A,]3 F, | [B,,F,]6 || B,B, | %18
w: ~ ~ ~ ~|~ ~ ~ ~|~|In the|
 B,2 B,2 B,2 [B,,B,][B,,B,] | [C,A,][C,A,][C,A,][C,A,] [C,A,]2 [F,C][F,B,] | %20
w: feast a- bove let there|be no va- cant chair, Let us|
 [F,A,]2 [F,A,]2 [F,A,]2 [F,A,][F,A,] | B,6 [B,,B,][B,,B,] | [B,,B,]2 [B,,D]2 [D,C]2 [D,D]2 | %23
w: one and all, Let us|one and all|be there! * *|
 [E,B,]2 [C,C]2 [D,=B,]2 [E,C]2 | [F,B,]2 [F,B,]2 [F,A,]3 F, | [B,,F,]6 |] %26
w: |||
V:4
 x2 | x8 | x8 | x8 | x8 | x8 | x8 | x8 | x8 | x8 | x8 | x8 | B,6 B,B, | x6 G,2 | x8 | x7 F, | x6 || %17
 B,B, | B,2 B,2 B,2 x2 | x8 | x8 | B,,B,,D,F, B,2 x2 | x8 | x8 | x7 F, | x6 |] %26

